dist/img/picture/brands/pirelli.svg

<svg width="112" height="19" viewBox="0 0 112 19" fill="none" xmlns="http://www.w3.org/2000/svg">
<g clip-path="url(#clip0_1301_1388)">
<path d="M42.6262 8.69716C42.5432 8.69698 42.459 8.69805 42.3734 8.70059H28.0365V19H35.2048V15.8436H36.9641L39.1606 19H47.723L44.5545 15.5827C48.0889 14.2313 47.8576 8.71315 42.6262 8.69716ZM35.2048 11.3148H37.9778C40.5573 11.3148 40.599 13.229 38.0207 13.229H35.2048V11.3148Z" fill="#ED1C24"/>
<path d="M108.04 0.000432761C107.965 -0.000792862 107.889 -0.00034823 107.813 0.00171873H0V18.9998H12.4346V7.1111H107.813C113.954 6.59626 112.74 0.0776361 108.04 0.000432761ZM81.4791 2.65338C89.1664 2.65489 94.3068 2.65886 94.3485 2.66688C95.4455 2.89578 95.5289 4.10445 94.3485 4.4318H12.4346V2.66688C12.4346 2.66688 58.4174 2.64887 81.4791 2.65338Z" fill="#ED1C24"/>
<path d="M16.6873 18.9999H23.8115V8.70044H16.6873V18.9999Z" fill="#ED1C24"/>
<path d="M50.8332 8.70056V18.9999H66.3954V16.3978H58.1273V15.0265H65.5511V12.4901H58.1729V11.3146H65.8469V8.70056H50.8332Z" fill="#ED1C24"/>
<path d="M70.1995 8.70056V18.9999H84.2378V16.3677H77.5346V8.70056H70.1995Z" fill="#ED1C24"/>
<path d="M86.0729 8.70056V18.9999H100.109V16.3677H93.4082V8.70056H86.0729Z" fill="#ED1C24"/>
<path d="M102.222 18.9999H109.348V8.70044H102.222V18.9999Z" fill="#ED1C24"/>
</g>
<defs>
<clipPath id="clip0_1301_1388">
<rect width="112" height="19" fill="white"/>
</clipPath>
</defs>
</svg>

<svg width="112" height="19" viewBox="0 0 112 19" fill="none" xmlns="http://www.w3.org/2000/svg"><g clip-path="url(#clip0_1301_1388)" fill="#ED1C24"><path d="M42.626 8.697c-.083 0-.167.001-.253.004H28.037V19h7.168v-3.156h1.76L39.16 19h8.562l-3.169-3.417c3.535-1.352 3.304-6.87-1.928-6.886zm-7.421 2.618h2.773c2.58 0 2.621 1.914.043 1.914h-2.816v-1.914z"/><path d="M108.04 0c-.075 0-.151 0-.227.002H0V19h12.435V7.11h95.378c6.141-.515 4.927-7.033.227-7.11zM81.48 2.653c7.686.002 12.827.006 12.868.014 1.097.229 1.18 1.437 0 1.765H12.436V2.667s45.982-.018 69.044-.014z"/><path d="M16.687 19h7.124V8.7h-7.124V19zM50.833 8.7V19h15.562v-2.602h-8.268v-1.371h7.424V12.49h-7.378v-1.175h7.674V8.7H50.833zm19.367 0V19h14.038v-2.632h-6.703V8.7H70.2zm15.873 0V19h14.036v-2.632h-6.7V8.7h-7.336zM102.222 19h7.126V8.7h-7.126V19z"/></g><defs><clipPath id="clip0_1301_1388"><path fill="#fff" d="M0 0h112v19H0z"/></clipPath></defs></svg>
